X:1
T:Sanctus (101)
T:                                                    Friedrich Silcher (1789 - 1860)
T: 
T:Sanctus 
T:Männerchor Buch
T:Männerchor Buch
C:Friedrich Silcher (1789 - 1860)
Z:Männerchor Buch
%%score [ 1 2 3 4 ]
L:1/8
Q:1/4=160
M:4/2
K:F
V:1 treble-8 nm="T1"
V:2 treble-8 nm="T2"
V:3 bass nm="B1"
V:4 bass nm="B2"
V:1
"^Adagio"!p!!<(! c8!<)!!f!!>(! c4!>)! z4 |!p!!<(! c8!<)!!f!!>(! c4!>)! z4 |!p!"^cresc." c8 c4 c4 | %3
w: Sanc- tus,|Sanc- tus,|Do- mi- nus|
 c8 c4!f! c2 c2 | (d16 | c4) c4 c4 B2 B2 | A8 G8 | A8 || %8
w: De- us, Sanc- tus,|Sanc-|* tus, Do- mi- nus|Sa- ba-|oth!|
[M:2/4][Q:1/4=120]"^Allegro moderato"!f! A2 A A |[M:4/4] d4 d2 d2 | e2 e2 z4 | e4 d2 e2 | %12
w: Ple- ni sunt|coe- li et|ter- ra,|coe- li et|
 f2 f2 z2 f e | (d4 g2) f2 | e4 e2 e2 | d8 | e2 z2 z2 c c | (f6 gf) | e2 z2 z2 c c | f6 (gf) | %20
w: ter- ra ma- je-|sta- * tis|glo- ri- ae|tu-|ae, ma- je-|sta- * *|tis, ma- je-|sta- tis _|
 e4 e2 d2 | (c6 =B2) | c8 ||[M:4/2][Q:1/4=160]"^Adagio"!p!!p!!<(! c8!<)!!f!!>(! c4!>)! z4 | %24
w: glo- ri- ae|tu- *|ae!|Sanc- tus,|
!p!!<(! c8!<)!!f!!>(! c4!>)! z4 |!p!"_cresc." c8 c4 c4 | c8 c4!f! c2"^cresc." c2 | (d16 | %28
w: Sanc- tus,|Do- mi- nus|De- us, Sanc- tus,|Sanc-|
 c4) c4!ff! c4 f2 f2 | f8 e8 | f16 |] %31
w: * tus, Do- mi- nus|Sa- ba-|oth!|
V:2
!p!!<(! A8!<)!!f!!>(! A4!>)! z4 |!p!!<(! B8!<)!!f!!>(! B4!>)! z4 |!p!"^cresc." A8 G4 F4 | %3
w: Sanc- tus,|Sanc- tus,|Do- mi- nus|
 G8 G4!f! G2 G2 | (A8 B4 A4 | G4) G4 F4 G2 G2 | F12 E4 | F8 ||[M:2/4]!f! A2 A A |[M:4/4] A4 A2 d2 | %10
w: De- us, Sanc- tus,|Sanc- * *|* tus, Do- mi- nus|Sa- ba-|oth!|Ple- ni sunt|coe- li et|
 d2 d2 z4 | ^c4 =B2 c2 | d2 d2 z2 d c | (c2 (=B2 B)c) (AB) | c4 c2 c2 | (c6 =B2) | c2 z2 z2 c c | %17
w: ter- ra,|coe- li et|ter- ra ma- je-|sta- * * * tis _|glo- ri- ae|tu- *|ae, ma- je-|
 (c2 dc =B2 d2) | c2 z2 z2 c c | (c2 dc =B2) d2 | c4 A2 A2 | G8 | G8 || %23
w: sta- * * * *|tis, ma- je-|sta- * * * tis|glo- ri- ae|tu-|ae!|
[M:4/2]!p!!p!!<(! A8!<)!!f!!>(! A4!>)! z4 |!p!!<(! B8!<)!!f!!>(! B4!>)! z4 |!p!"_cresc." A8 G4 F4 | %26
w: Sanc- tus,|Sanc- tus,|Do- mi- nus|
 G8 G4!f! G2"^cresc." G2 | (A8 B4 A4 | G4) G4!ff! F4 d2 d2 | d8 c8 | c16 |] %31
w: De- us, Sanc- tus,|Sanc- * *|* tus, Do- mi- nus|Sa- ba-|oth!|
V:3
!p!!<(! F,8!<)!!f!!>(! F,4!>)! z4 |!p!!<(! G,8!<)!!f!!>(! G,4!>)! z4 |!p!"^cresc." F,8 E,4 D,4 | %3
w: Sanc- tus,|Sanc- tus,|Do- mi- nus|
 E,8 E,4!f! E,2 E,2 | (F,8 G,4 F,4 | E,4) E,4 F,4 D,2 D,2 | C,8 C,8 | C,8 ||[M:2/4]!f! A,2 A, A, | %9
w: De- us, Sanc- tus,|Sanc- * *|* tus, Do- mi- nus|Sa- ba-|oth!|Ple- ni sunt|
[M:4/4] F,4 F,2 A,2 | A,2 A,2 z4 | A,4 A,2 A,2 | A,2 A,2 z2 A, A, | (A,2 (G,2 G,)E,) F,2 | %14
w: coe- li et|ter- ra,|coe- li et|ter- ra ma- je-|sta- * * * tis|
 G,4 G,2 A,2 | (A,4 G,4) | G,2 C =B, (CB,) (A,G,) | A,4 G,4 | G,2 C =B, (CB,) (A,G,) | (A,4 (G,4 | %20
w: glo- ri- ae|tu- *|ae, ma- je- sta- * tis _|glo- ri-|ae, ma- je- sta- * tis _|glo- *|
 G,4)) F,2 F,2 | (E,4 D,2 F,2) | E,8 ||[M:4/2]!p!!p!!<(! F,8!<)!!f!!>(! F,4!>)! z4 | %24
w: * ri- ae|tu- * *|ae!|Sanc- tus,|
!p!!<(! G,8!<)!!f!!>(! G,4!>)! z4 |!p!"_cresc." F,8 E,4 D,4 | E,8 E,4!f! E,2"^cresc." E,2 | %27
w: Sanc- tus,|Do- mi- nus|De- us, Sanc- tus,|
 (F,8 G,4 F,4 | E,4) E,4!ff! F,4 A,2 A,2 | G,12 (A,2 B,2) | A,16 |] %31
w: Sanc- * *|* tus, Do- mi- nus|Sa- ba- *|oth!|
V:4
!p!!<(! F,8!<)!!f!!>(! F,4!>)! z4 |!p!!<(! E,8!<)!!f!!>(! E,4!>)! z4 |!p!"^cresc." F,8 E,4 D,4 | %3
w: Sanc- tus,|Sanc- tus,|Do- mi- nus|
 C,8 C,4!f! C,2 C,2 | (C,16 | C,4) B,,4 A,,4 B,,2 B,,2 | C,8 C,8 | F,,8 ||[M:2/4]!f! A,2 A, A, | %9
w: De- us, Sanc- tus,|Sanc-|* tus, Do- mi- nus|Sa- ba-|oth!|Ple- ni sunt|
[M:4/4] D,4 D,2 F,2 | A,2 A,2 z4 | A,,4 A,,2 A,,2 | D,2 D,2 z2 F, ^F, | (G,3 F, E,2) D,2 | %14
w: coe- li et|ter- ta,|coe- li et|ter- ra ma- je-|sta- * * tis|
 (C,2 E,D,) (C,=B,,) (A,,G,,) | (F,,4 G,,4) | C,2 C =B, (A,G,) (F,E,) | (D,4 G,,2) =B,,2 | %18
w: glo- * * ri- * ae _|tu- *|ae, ma- je- sta- * tis _|glo- * ri-|
 C,2 C =B, (A,G,) (F,E,) | (D,4 G,,2 =B,,2 | C,4) F,,2 F,,2 | G,,8 | C,8 || %23
w: ae, ma- je- sta- * tis _|glo- * *|* ri- ae|tu-|ae!|
[M:4/2]!p!!p!!<(! F,8!<)!!f!!>(! F,4!>)! z4 |!p!!<(! E,8!<)!!f!!>(! E,4!>)! z4 | %25
w: Sanc- tus,|Sanc- tus,|
!p!"_cresc." F,8 E,4 D,4 | C,8 C,4!f! C,2"^cresc." C,2 | (C,16 | C,4) B,,4!ff! A,,4 D,2 D,2 | %29
w: Do- mi- nus|De- us, Sanc- tus,|Sanc-|* tus, Do- mi- nus|
 B,,8 C,8 | F,,16 |] %31
w: Sa- ba-|oth!|

